X:70
T:Sunderland Lasses. JBi.69
M:3/4
L:1/8
Q:1/4=110
S:James Biggins MS, Leeds, 1779.
R:.Misc.
O:England
A:Yorkshire
N:There is an â€˜e2â€™ lead-in note which I have removed for clarity of playback
N:This is how it is beamed in the ms, so although it claims 6/8 in the
N:MS, I have
N:moved it to 3/4, which is more in line with other versions..cgp..
Z:vmp.Nick Barber & Chris Partington
K:A
â€œ_Key F,Time sig 6/8 in MSâ€\
c2Ac ec|Aeec ea|c2Ac ec|BffB df||!
Ac ec dc|Ac ec ea|Ac ec ac|BffB df||!
a2eg ae|cA aceg|a2 eg ae|dBfB df|]

